X:1
T:Title
%%score { 1 | ( 2 3 ) }
L:1/8
M:4/4
K:Bb
V:1 treble nm="Grand Piano"
V:2 bass 
V:3 bass 
V:1
 z4 z2[Q:1/4=100] [B,DF]2 | [B,DF]2 [B,D]E [B,DF]2 [B,EG]2 | [B,DF]4 [B,D]2 [B,DF]2 | %3
 [B,EG]2 [B,EG]2 [CEA]2 [CEA]2 |[M:3/4] [DB]4 z2 |[M:1/4] [Fd]2 |[M:4/4] c2 AB c2 d2 | c4 A2 A2 | %8
 [DGB]2 [DGB]2 [B,=EG]2 [B,EG]2 |[M:3/4] [A,F]4 z2 |[M:1/4] F2 |[M:4/4] F2 F2 A2 A2 | [Gc]4 A2 F2 | %13
 B2 B2 c2 [Bd]2 |[M:3/4] [Ae]6 |[M:1/4] [Fe]2 |[M:4/4] [Fd]2 [Fd]2 [FB]2 [FB]2 | G4 E2 E2 | %18
 F2 F2 F2 GA |[M:7/4] [DB]6 z2 z2 z4 |[M:4/4] [EB]4 [DB]4 |] %21
V:2
 z4 z2 B,,2 | B,,2 z C B,,2 B,,2 | B,,4 B,,2 B,,2 | E,2 E,2 C,2 F,2 |[M:3/4] [B,,B,]4 z2 | %5
[M:1/4] [B,,B,]2 |[M:4/4] z2 [F,F]2 z4 | [F,A,F]4 [F,CF]2 [F,CF]2 | B,,2 B,,2 C,2 C,2 | %9
[M:3/4] F,4 z2 |[M:1/4] F,2 |[M:4/4] [F,A,]2 [F,A,]2 [F,CF]2 [F,CF]2 | [=E,C]4 [F,CF]2 F,2 | %13
 [F,DF]2 [F,DF]2 [F,CF]2 [F,B,]2 |[M:3/4] [F,C]6 |[M:1/4] [F,A,]2 | %16
[M:4/4] [B,,B,]2 [B,,B,]2 [D,B,]2 [D,B,]2 | [E,B,E]4 [E,G,]2 [G,B,]2 | %18
 [F,B,D]2 [F,B,D]2 [F,A,C]2 [F,CE]2 |[M:7/4] [B,,B,]6 z2 z2 z4 |[M:4/4] [E,G,]4 [B,,F,]4 |] %21
V:3
 x8 | z2 B,,2 z4 | x8 | x8 |[M:3/4] x6 |[M:1/4] x2 |[M:4/4] [F,A,F]2 z G, [F,A,F]2 [F,B,F]2 | x8 | %8
 x8 |[M:3/4] x6 |[M:1/4] x2 |[M:4/4] x8 | x8 | x8 |[M:3/4] x6 |[M:1/4] x2 |[M:4/4] x8 | x8 | x8 | %19
[M:7/4] x14 |[M:4/4] x8 |] %21

